src/icons/playwright.svg

<svg role="img" viewBox="0 0 48 48" xmlns="http://www.w3.org/2000/svg"><path d="M16.332 26.185c-1.68.477-2.782 1.313-3.508 2.148.695-.608 1.627-1.167 2.883-1.523 1.285-.364 2.382-.362 3.288-.187v-.708c-.773-.071-1.659-.015-2.663.27m-3.585-5.954-6.239 1.643s.114.16.325.375l5.29-1.394s-.075.966-.727 1.83c1.232-.932 1.351-2.454 1.351-2.454m5.223 14.661C9.19 37.257 4.545 27.083 3.139 21.801c-.65-2.437-.933-4.284-1.009-5.474a1.998 1.998 0 0 1 .005-.324c-.456.027-.674.264-.63.948.076 1.191.359 3.037 1.009 5.475 1.405 5.28 6.051 15.456 14.831 13.091 1.911-.515 3.347-1.453 4.425-2.65-.994.897-2.237 1.604-3.8 2.025m1.65-20.888v.625h3.443c-.071-.222-.142-.421-.212-.625zm4.212 5.146c1.549.439 2.368 1.525 2.801 2.486l1.727.491s-.235-3.363-3.277-4.227c-2.846-.809-4.597 1.581-4.81 1.89.828-.59 2.037-1.073 3.559-.64m13.746 2.502c-2.848-.813-4.598 1.582-4.808 1.887.828-.589 2.037-1.072 3.558-.638 1.547.44 2.365 1.525 2.8 2.487l1.729.492s-.239-3.364-3.279-4.228m-1.715 8.867-14.365-4.016s.155.788.753 1.809l12.094 3.381c.995-.576 1.518-1.174 1.518-1.174m-9.959 8.643c-11.375-3.049-10-17.541-8.158-24.408.757-2.83 1.536-4.934 2.182-6.344-.386-.079-.705.124-1.02.766-.686 1.391-1.563 3.656-2.412 6.827-1.84 6.868-3.215 21.359 8.158 24.408 5.361 1.437 9.537-.746 12.651-4.174-2.956 2.676-6.728 4.177-11.401 2.925" fill="#2D4552"/><path d="M19.62 31.496v-2.924l-8.126 2.304s.601-3.488 4.838-4.691c1.285-.364 2.382-.361 3.288-.187V14.004h4.068c-.443-1.369-.872-2.423-1.231-3.156-.596-1.211-1.206-.408-2.592.751-.976.815-3.442 2.555-7.153 3.555-3.713 1-6.713.735-7.965.519-1.775-.307-2.703-.697-2.616.654.076 1.19.359 3.036 1.008 5.474 1.406 5.281 6.052 15.456 14.831 13.091 2.293-.618 3.913-1.839 5.034-3.396zM6.508 21.874l6.239-1.643s-.182 2.4-2.52 3.017c-2.34.616-3.719-1.374-3.719-1.374" fill="#E2574C"/><path d="M43.101 14.142c-1.622.284-5.513.639-10.321-.65-4.81-1.288-8.001-3.541-9.266-4.6-1.792-1.501-2.581-2.544-3.356-.966-.687 1.391-1.563 3.657-2.412 6.828-1.841 6.867-3.216 21.358 8.158 24.408 11.371 3.047 17.424-10.192 19.264-17.059.849-3.171 1.222-5.572 1.324-7.12.117-1.753-1.088-1.244-3.391-.841M20.25 19.824s1.792-2.788 4.832-1.924c3.042.864 3.278 4.227 3.278 4.227zm7.421 12.509c-5.348-1.566-6.172-5.83-6.172-5.83l14.364 4.016c0-.001-2.9 3.36-8.192 1.814m5.078-8.762s1.79-2.786 4.829-1.92c3.04.865 3.279 4.228 3.279 4.228z" fill="#2EAD33"/><path d="m16.78 29.377-5.286 1.498s.575-3.271 4.468-4.567l-2.993-11.233-.258.079c-3.712 1-6.713.735-7.965.519-1.774-.307-2.703-.697-2.616.654.076 1.19.359 3.036 1.009 5.474C4.544 27.082 9.19 37.257 17.97 34.892l.258-.081zM6.508 21.874l6.239-1.643s-.182 2.4-2.52 3.017c-2.34.616-3.719-1.374-3.719-1.374" fill="#D65348"/><path d="m27.912 32.392-.242-.059c-5.347-1.566-6.172-5.83-6.172-5.83l7.407 2.07 3.922-15.068-.048-.013c-4.81-1.288-8.001-3.541-9.266-4.6-1.792-1.501-2.58-2.544-3.356-.966-.686 1.391-1.562 3.657-2.411 6.828-1.841 6.867-3.216 21.358 8.158 24.408l.233.053zM20.25 19.824s1.792-2.788 4.832-1.924c3.042.864 3.278 4.227 3.278 4.227z" fill="#1D8D22"/><path d="m17.049 29.3-1.417.402c.335 1.889.925 3.701 1.851 5.301.161-.036.322-.066.486-.111.431-.117.829-.26 1.214-.417-1.035-1.536-1.72-3.305-2.134-5.175m-.553-13.296c-.729 2.718-1.381 6.631-1.201 10.557.321-.14.66-.27 1.037-.376l.263-.059c-.32-4.193.371-8.465 1.151-11.372.197-.735.394-1.419.592-2.057-.317.202-.66.41-1.05.623a53.218 53.218 0 0 0-.792 2.684" fill="#C04B41"/></svg>

<?xml version="1.0" encoding="utf-8"?>
<svg viewBox="0 0 48 48" width="48" height="48" xmlns="http://www.w3.org/2000/svg">
  <path d="M 16.332 26.185 C 14.652 26.662 13.55 27.498 12.824 28.333 C 13.519 27.725 14.451 27.166 15.707 26.81 C 16.992 26.446 18.089 26.448 18.995 26.623 L 18.995 25.915 C 18.222 25.844 17.336 25.9 16.332 26.185 Z M 12.747 20.231 L 6.508 21.874 C 6.508 21.874 6.622 22.034 6.833 22.249 L 12.123 20.855 C 12.123 20.855 12.048 21.821 11.396 22.685 C 12.628 21.753 12.747 20.231 12.747 20.231 Z M 17.97 34.892 C 9.19 37.257 4.545 27.083 3.139 21.801 C 2.489 19.364 2.206 17.517 2.13 16.327 C 2.122 16.202 2.126 16.098 2.135 16.003 C 1.679 16.03 1.461 16.267 1.505 16.951 C 1.581 18.142 1.864 19.988 2.514 22.426 C 3.919 27.706 8.565 37.882 17.345 35.517 C 19.256 35.002 20.692 34.064 21.77 32.867 C 20.776 33.764 19.533 34.471 17.97 34.892 Z M 19.62 14.004 L 19.62 14.629 L 23.063 14.629 C 22.992 14.407 22.921 14.208 22.851 14.004 L 19.62 14.004 Z" fill="#2D4552"/>
  <path d="M 23.832 19.15 C 25.381 19.589 26.2 20.675 26.633 21.636 L 28.36 22.127 C 28.36 22.127 28.125 18.764 25.083 17.9 C 22.237 17.091 20.486 19.481 20.273 19.79 C 21.101 19.2 22.31 18.717 23.832 19.15 Z M 37.578 21.652 C 34.73 20.839 32.98 23.234 32.77 23.539 C 33.598 22.95 34.807 22.467 36.328 22.901 C 37.875 23.341 38.693 24.426 39.128 25.388 L 40.857 25.88 C 40.857 25.88 40.618 22.516 37.578 21.652 Z M 35.863 30.519 L 21.498 26.503 C 21.498 26.503 21.653 27.291 22.251 28.312 L 34.345 31.693 C 35.34 31.117 35.863 30.519 35.863 30.519 Z M 25.904 39.162 C 14.529 36.113 15.904 21.621 17.746 14.754 C 18.503 11.924 19.282 9.82 19.928 8.41 C 19.542 8.331 19.223 8.534 18.908 9.176 C 18.222 10.567 17.345 12.832 16.496 16.003 C 14.656 22.871 13.281 37.362 24.654 40.411 C 30.015 41.848 34.191 39.665 37.305 36.237 C 34.349 38.913 30.577 40.414 25.904 39.162 Z" fill="#2D4552"/>
  <path d="M 19.62 31.496 L 19.62 28.572 L 11.494 30.876 C 11.494 30.876 12.095 27.388 16.332 26.185 C 17.617 25.821 18.714 25.824 19.62 25.998 L 19.62 14.004 L 23.688 14.004 C 23.245 12.635 22.816 11.581 22.457 10.848 C 21.861 9.637 21.251 10.44 19.865 11.599 C 18.889 12.414 16.423 14.154 12.712 15.154 C 8.999 16.154 5.999 15.889 4.747 15.673 C 2.972 15.366 2.044 14.976 2.131 16.327 C 2.207 17.517 2.49 19.363 3.139 21.801 C 4.545 27.082 9.191 37.257 17.97 34.892 C 20.263 34.274 21.883 33.053 23.004 31.496 L 19.62 31.496 Z M 6.508 21.874 L 12.747 20.231 C 12.747 20.231 12.565 22.631 10.227 23.248 C 7.887 23.864 6.508 21.874 6.508 21.874 Z" fill="#E2574C"/>
  <path d="M 43.101 14.142 C 41.479 14.426 37.588 14.781 32.78 13.492 C 27.97 12.204 24.779 9.951 23.514 8.892 C 21.722 7.391 20.933 6.348 20.158 7.926 C 19.471 9.317 18.595 11.583 17.746 14.754 C 15.905 21.621 14.53 36.112 25.904 39.162 C 37.275 42.209 43.328 28.97 45.168 22.103 C 46.017 18.932 46.39 16.531 46.492 14.983 C 46.609 13.23 45.404 13.739 43.101 14.142 Z M 20.25 19.824 C 20.25 19.824 22.042 17.036 25.082 17.9 C 28.124 18.764 28.36 22.127 28.36 22.127 L 20.25 19.824 Z M 27.671 32.333 C 22.323 30.767 21.499 26.503 21.499 26.503 L 35.863 30.519 C 35.863 30.518 32.963 33.879 27.671 32.333 Z M 32.749 23.571 C 32.749 23.571 34.539 20.785 37.578 21.651 C 40.618 22.516 40.857 25.879 40.857 25.879 L 32.749 23.571 Z" fill="#2EAD33"/>
  <path d="M 16.78 29.377 L 11.494 30.875 C 11.494 30.875 12.069 27.604 15.962 26.308 L 12.969 15.075 L 12.711 15.154 C 8.999 16.154 5.998 15.889 4.746 15.673 C 2.972 15.366 2.043 14.976 2.13 16.327 C 2.206 17.517 2.489 19.363 3.139 21.801 C 4.544 27.082 9.19 37.257 17.97 34.892 L 18.228 34.811 L 16.78 29.377 Z M 6.508 21.874 L 12.747 20.231 C 12.747 20.231 12.565 22.631 10.227 23.248 C 7.887 23.864 6.508 21.874 6.508 21.874 Z" fill="#D65348"/>
  <path d="M 27.912 32.392 L 27.67 32.333 C 22.323 30.767 21.498 26.503 21.498 26.503 L 28.905 28.573 L 32.827 13.505 L 32.779 13.492 C 27.969 12.204 24.778 9.951 23.513 8.892 C 21.721 7.391 20.933 6.348 20.157 7.926 C 19.471 9.317 18.595 11.583 17.746 14.754 C 15.905 21.621 14.53 36.112 25.904 39.162 L 26.137 39.215 L 27.912 32.392 Z M 20.25 19.824 C 20.25 19.824 22.042 17.036 25.082 17.9 C 28.124 18.764 28.36 22.127 28.36 22.127 L 20.25 19.824 Z" fill="#1D8D22"/>
  <path d="M 17.049 29.3 L 15.632 29.702 C 15.967 31.591 16.557 33.403 17.483 35.003 C 17.644 34.967 17.805 34.937 17.969 34.892 C 18.4 34.775 18.798 34.632 19.183 34.475 C 18.148 32.939 17.463 31.17 17.049 29.3 Z M 16.496 16.004 C 15.767 18.722 15.115 22.635 15.295 26.561 C 15.616 26.421 15.955 26.291 16.332 26.185 L 16.595 26.126 C 16.275 21.933 16.966 17.661 17.746 14.754 C 17.943 14.019 18.14 13.335 18.338 12.697 C 18.021 12.899 17.678 13.107 17.288 13.32 C 17.025 14.132 16.759 15.019 16.496 16.004 Z" fill="#C04B41"/>
</svg>
